assets/Mouse trap/Flat/mouse_trap_flat.svg

<svg width="32" height="32" viewBox="0 0 32 32" fill="none" xmlns="http://www.w3.org/2000/svg">
<path d="M2 16L9.5 18L14.5 16L18.5 13C18.5 13 20.1154 7.39479 20.8563 8.26449C20.8563 8.26449 19.7493 7 19 7H8.5C7.5 7 6.88889 8 6.88889 8L2 16Z" fill="#F3C07B"/>
<path d="M21.0345 8.49998L28.9655 20C28.9655 20 30 21.5 29.4629 22.4131L25 30L18.5 24L14.5 16L19 7.89998C19.2015 7.52659 20.2729 7.36976 21.0345 8.49998Z" fill="#FFDEA7"/>
<path d="M14.5 16H2L12.5 30H25L14.5 16Z" fill="#7D4533"/>
<path d="M7 16C6.72555 16 6.69404 15.9746 6.68741 15.9693C6.68665 15.9687 6.67867 15.9624 6.66585 15.9438C6.65223 15.9241 6.62933 15.8851 6.60462 15.8166C6.5536 15.6753 6.5 15.4226 6.5 15C6.5 14.4477 6.05228 14 5.5 14C4.94772 14 4.5 14.4477 4.5 15C4.5 16.1381 4.78342 17.0074 5.4378 17.5309C5.62144 17.6778 5.81407 17.7788 6 17.8483V29.25C6 29.8023 6.44772 30.25 7 30.25C7.55228 30.25 8 29.8023 8 29.25V17.8483C8.18593 17.7788 8.37856 17.6778 8.56219 17.5309C9.00887 17.1735 9.2827 16.6551 9.41154 16H7Z" fill="#D3D3D3"/>
<path d="M9.60597 30H15.894C16.3205 30 16.6005 29.492 16.466 29.0341C16.4411 28.9491 16.4138 28.8639 16.4054 28.7757L15.7656 22H12.7503C12.5464 21.9999 12.3425 22.1211 12.226 22.3636L9.08197 28.9091C8.84908 29.3939 9.14019 30 9.60597 30Z" fill="#FFB02E"/>
<path d="M15.226 22.3636C15.4589 21.8788 16.0411 21.8788 16.274 22.3636L19.418 28.9091C19.6509 29.3939 19.3598 30 18.894 30H12.606C12.1402 30 11.8491 29.3939 12.082 28.9091L15.226 22.3636Z" fill="#F9C23C"/>
<path d="M16.25 25.5C16.25 25.9142 15.9142 26.25 15.5 26.25C15.0858 26.25 14.75 25.9142 14.75 25.5C14.75 25.0858 15.0858 24.75 15.5 24.75C15.9142 24.75 16.25 25.0858 16.25 25.5Z" fill="#D3883E"/>
<path d="M16 28C16 28.5523 15.5523 29 15 29C14.4477 29 14 28.5523 14 28C14 27.4477 14.4477 27 15 27C15.5523 27 16 27.4477 16 28Z" fill="#D3883E"/>
<path d="M17 27.5C17.2761 27.5 17.5 27.2761 17.5 27C17.5 26.7239 17.2761 26.5 17 26.5C16.7239 26.5 16.5 26.7239 16.5 27C16.5 27.2761 16.7239 27.5 17 27.5Z" fill="#D3883E"/>
</svg>

<svg xmlns="http://www.w3.org/2000/svg" width="32" height="32" fill="none"><path fill="#F3C07B" d="m2 16 7.5 2 5-2 4-3s1.615-5.605 2.356-4.736C20.856 8.264 19.75 7 19 7H8.5c-1 0-1.611 1-1.611 1L2 16Z"/><path fill="#FFDEA7" d="m21.035 8.5 7.93 11.5s1.035 1.5.498 2.413L25 30l-6.5-6-4-8L19 7.9c.201-.373 1.273-.53 2.035.6Z"/><path fill="#7D4533" d="M14.5 16H2l10.5 14H25L14.5 16Z"/><path fill="#D3D3D3" d="M7 16c-.274 0-.306-.025-.313-.03 0-.001-.008-.008-.021-.026a.557.557 0 0 1-.061-.127c-.051-.142-.105-.394-.105-.817a1 1 0 1 0-2 0c0 1.138.283 2.007.938 2.53.183.148.376.249.562.318V29.25a1 1 0 1 0 2 0V17.848c.186-.07.379-.17.562-.317.447-.357.72-.876.85-1.531H7Z"/><path fill="#FFB02E" d="M9.606 30h6.288c.426 0 .707-.508.572-.966-.025-.085-.052-.17-.06-.258L15.765 22H12.75c-.204 0-.408.121-.524.364l-3.144 6.545c-.233.485.058 1.091.524 1.091Z"/><path fill="#F9C23C" d="M15.226 22.364c.233-.485.815-.485 1.048 0l3.144 6.545c.233.485-.058 1.091-.524 1.091h-6.288c-.466 0-.757-.606-.524-1.09l3.144-6.546Z"/><path fill="#D3883E" d="M16.25 25.5a.75.75 0 1 1-1.5 0 .75.75 0 0 1 1.5 0ZM16 28a1 1 0 1 1-2 0 1 1 0 0 1 2 0ZM17 27.5a.5.5 0 1 0 0-1 .5.5 0 0 0 0 1Z"/></svg>
